icons/linkedin-box.svg

﻿<?xml version="1.0" encoding="utf-8"?>
<!DOCTYPE svg PUBLIC "-//W3C//DTD SVG 1.1//EN" "http://www.w3.org/Graphics/SVG/1.1/DTD/svg11.dtd">
<svg xmlns="http://www.w3.org/2000/svg" xmlns:xlink="http://www.w3.org/1999/xlink" version="1.1" baseProfile="full" width="24" height="24" viewBox="0 0 24.00 24.00" enable-background="new 0 0 24.00 24.00" xml:space="preserve">
	<path fill="#000000" fill-opacity="1" stroke-width="0.2" stroke-linejoin="round" d="M 19,3.00001C 20.1035,3.00001 21,3.895 21,5.00001L 21,19C 21,20.1035 20.1035,21 19,21L 5,21C 3.895,21 3,20.1035 3,19L 3,5.00001C 3,3.895 3.88523,3.00001 4.99023,3.00001L 19,3.00001 Z M 18.4929,18.4916L 18.4929,13.195C 18.4929,11.3988 17.0368,9.94269 15.2406,9.94269C 14.3913,9.94269 13.3989,10.4649 12.9176,11.2436L 12.9176,10.1285L 10.1299,10.1285L 10.1299,18.4916L 12.9176,18.4916L 12.9176,13.5667C 12.9176,12.7973 13.542,12.1728 14.3114,12.1728C 15.0808,12.1728 15.7052,12.7973 15.7052,13.5667L 15.7052,18.4916L 18.4929,18.4916 Z M 6.87759,8.56C 7.80775,8.56 8.56135,7.80733 8.56135,6.87624C 8.56135,5.94516 7.80775,5.19156 6.87759,5.19156C 5.94744,5.19156 5.19291,5.94516 5.19291,6.87624C 5.19291,7.80733 5.94744,8.56 6.87759,8.56 Z M 8.27143,18.4916L 8.27143,10.1285L 5.48375,10.1285L 5.48375,18.4916L 8.27143,18.4916 Z "/>
</svg>

<svg xmlns="http://www.w3.org/2000/svg" width="24" height="24" baseProfile="full" viewBox="0 0 24 24"><path d="M19 3a2 2 0 012 2v14a2 2 0 01-2 2H5a2 2 0 01-2-2V5c0-1.105.885-2 1.99-2H19zm-.507 15.492v-5.297a3.252 3.252 0 00-3.252-3.252c-.85 0-1.842.522-2.323 1.3V10.13H10.13v8.363h2.788v-4.925a1.394 1.394 0 012.787 0v4.925h2.788zM6.878 8.56a1.684 1.684 0 100-3.37 1.684 1.684 0 000 3.37zm1.393 9.932v-8.364H5.484v8.364H8.27z"/></svg>
